components/ui-node-icon/src/splitColumns/splitColumns.medium.svg

<svg width="24" height="24" viewBox="0 0 24 24" fill="none" xmlns="http://www.w3.org/2000/svg">
  <path fill-rule="evenodd" clip-rule="evenodd" d="M13.5 2.5C13.5 1.94772 13.0523 1.5 12.5 1.5C11.9477 1.5 11.5 1.94772 11.5 2.5V21.5C11.5 22.0523 11.9477 22.5 12.5 22.5C13.0523 22.5 13.5 22.0523 13.5 21.5V2.5ZM7.88268 8.57615C7.50901 8.42137 7.07889 8.50692 6.79289 8.79292L4.79289 10.7929C4.40237 11.1834 4.40237 11.8166 4.79289 12.2071L6.79289 14.2071C7.07889 14.4931 7.50901 14.5787 7.88268 14.4239C8.25636 14.2691 8.5 13.9045 8.5 13.5V9.50003C8.5 9.09557 8.25636 8.73093 7.88268 8.57615ZM17.6173 8.57615C17.991 8.42137 18.4211 8.50692 18.7071 8.79292L20.7071 10.7929C21.0976 11.1834 21.0976 11.8166 20.7071 12.2071L18.7071 14.2071C18.4211 14.4931 17.991 14.5787 17.6173 14.4239C17.2436 14.2691 17 13.9045 17 13.5V9.50003C17 9.09557 17.2436 8.73093 17.6173 8.57615Z" fill="var(--tbl--colors--icons--clean--primary)"/>
</svg>

<svg xmlns="http://www.w3.org/2000/svg" width="24" height="24" fill="none" viewBox="0 0 24 24">
  <path fill="var(--tbl--colors--icons--clean--primary)" fill-rule="evenodd" d="M13.5 2.5a1 1 0 1 0-2 0v19a1 1 0 1 0 2 0v-19ZM7.883 8.576a1 1 0 0 0-1.09.217l-2 2a1 1 0 0 0 0 1.414l2 2A1 1 0 0 0 8.5 13.5v-4a1 1 0 0 0-.617-.924Zm9.734 0a1 1 0 0 1 1.09.217l2 2a1 1 0 0 1 0 1.414l-2 2A1 1 0 0 1 17 13.5v-4a1 1 0 0 1 .617-.924Z" clip-rule="evenodd"/>
</svg>
